icons/calendar-arrow-left.svg

<svg xmlns="http://www.w3.org/2000/svg" width="24" height="24" viewBox="0 0 24 24">
  <path d="M22,10 L22,20 C22,21.6568542 20.6568542,23 19,23 L5,23 C3.34314575,23 2,21.6568542 2,20 L2,10 L22,10 Z M8,16 L8.00018018,16.019176 L8.0017331,16.0590314 C8.00232561,16.0691128 8.00307004,16.0791869 8.00399798,16.090032 L8.00399798,16.090032 L8.0110178,16.1484669 C8.01362808,16.165949 8.01670217,16.1833753 8.02016515,16.2007941 C8.0246398,16.2227461 8.02983363,16.2444365 8.03584514,16.265993 C8.04009773,16.2814633 8.04472872,16.2968513 8.04954668,16.3117364 C8.05612249,16.3317977 8.06331574,16.3515792 8.07122549,16.371336 L8.07122549,16.371336 L8.09365378,16.4230991 C8.10337664,16.4438914 8.11379392,16.4642939 8.12467117,16.4840621 L8.12467117,16.4840621 L8.14606743,16.5206602 C8.1617187,16.546275 8.17849009,16.5711307 8.19633458,16.5953066 L8.19633458,16.5953066 L8.22,16.625 L8.29289322,16.7071068 L11.2928932,19.7071068 L11.3871006,19.7902954 C11.7793918,20.0953203 12.3466228,20.0675907 12.7071068,19.7071068 C13.0976311,19.3165825 13.0976311,18.6834175 12.7071068,18.2928932 L12.7071068,18.2928932 L11.415,17 L15,17 L15.1166211,16.9932723 C15.6139598,16.9355072 16,16.5128358 16,16 C16,15.4477153 15.5522847,15 15,15 L15,15 L11.415,15 L12.7071068,13.7071068 L12.7902954,13.6128994 C13.0953203,13.2206082 13.0675907,12.6533772 12.7071068,12.2928932 C12.3165825,11.9023689 11.6834175,11.9023689 11.2928932,12.2928932 L11.2928932,12.2928932 L8.29289322,15.2928932 L8.21968877,15.374551 C8.2173721,15.3774376 8.21507113,15.3803372 8.20970461,15.3871006 C8.20517454,15.3929267 8.20071786,15.3987914 8.19631351,15.4048407 C8.17849009,15.4288693 8.1617187,15.453725 8.14599545,15.4792912 C8.13860692,15.4913869 8.13149883,15.5036056 8.12487577,15.515723 C8.11379392,15.5357061 8.10337664,15.5561086 8.09367336,15.5767785 L8.09367336,15.5767785 L8.07110396,15.6289415 C8.06331574,15.6484208 8.05612249,15.6682023 8.04973809,15.6878575 C8.04472872,15.7031487 8.04009773,15.7185367 8.03572097,15.7341604 C8.02983363,15.7555635 8.0246398,15.7772539 8.02024007,15.7992742 C8.01670217,15.8166247 8.01362808,15.834051 8.01101934,15.8510388 L8.01101934,15.8510388 L8.003,15.918 L8.002,15.94 L8.00278786,15.9247615 L8.00278786,15.9247615 L8.0017331,15.9409686 L8.001,15.98 L8,16 L8,16 Z M7,3 L7,4 L7.00672773,4.11662113 C7.06449284,4.61395981 7.48716416,5 8,5 C8.51283584,5 8.93550716,4.61395981 8.99327227,4.11662113 L9,4 L9,3 L15,3 L15,4 L15.0067277,4.11662113 C15.0644928,4.61395981 15.4871642,5 16,5 C16.5128358,5 16.9355072,4.61395981 16.9932723,4.11662113 L17,4 L17,3 L19,3 C20.6568542,3 22,4.34314575 22,6 L22,8 L2,8 L2,6 C2,4.34314575 3.34314575,3 5,3 L7,3 Z M16,1 C16.5128358,1 16.9355072,1.38604019 16.9932723,1.88337887 L17,2 L17,3 L15,3 L15,2 C15,1.44771525 15.4477153,1 16,1 Z M8,1 C8.51283584,1 8.93550716,1.38604019 8.99327227,1.88337887 L9,2 L9,3 L7,3 L7,2 C7,1.44771525 7.44771525,1 8,1 Z"/>
</svg>

<svg xmlns="http://www.w3.org/2000/svg" viewBox="0 0 24 24">
  <path d="M22 10v10a3 3 0 0 1-3 3H5a3 3 0 0 1-3-3V10h20zM8 16v.09l.01.06a1.1 1.1 0 0 0 .06.22l.02.05.03.06.03.04.05.08.02.02.07.09 3 3 .1.08a1 1 0 0 0 1.32-1.5L11.4 17h3.71a1 1 0 0 0-.12-2H11.4l1.3-1.3.08-.09a1 1 0 0 0-1.5-1.32l-3 3-.07.08a3.01 3.01 0 0 0-.1.15l-.03.06-.02.05a.95.95 0 0 0-.06.22v.09-.02.08zM7 3v1.12a1 1 0 0 0 2 0V3h6v1.12a1 1 0 0 0 2 0V3h2a3 3 0 0 1 3 3v2H2V6a3 3 0 0 1 3-3h2zm9-2a1 1 0 0 1 1 .88V3h-2V2a1 1 0 0 1 1-1zM8 1a1 1 0 0 1 1 .88V3H7V2a1 1 0 0 1 1-1z"/>
</svg>
